X: 37574
T: Smeceno Horo
R: barndance
M: 4/4
K: Gmajor
[L:1/16][M:15/16] "D" ^cdd=c cBBA cBA "G" B2AG|[M:18/16] "D" F2FA ED "A" F2E .|"D" ED cBA B^GA z|
[M:15/16] "D" ^cdd=c cBBA cBA "G" B2AG|[M:18/16] "D" F2FA ED "A" F2E .|"D" ED "A" F2E "D" E^CD z:|
|:"D" F2FA ED "A" F2E .|"D" ED cBA "G" B2AG|"D" F2FA ED "A" F2E .|"D" ED cBA B^GA z|
F2FA ED "A" F2E .|"D" ED cBA "G" B2AG|"D" F2FA ED "A" F2E .|"D" ED "A" F2E "D" E^CD z:|
|:[M:15/16] "Dm" ^GAAD E=FGA cBA "G" B2A=G|[M:18/16] "D" F2FA ED "A" F2E .|"D" ED cBA B^GA z|
[M:15/16] "Dm" ^GAAD E=FGA cBA "G" B2A=G|[M:18/16] "D" F2FA ED "A" F2E .|"D" ED "A" F2E "D" E^CD z:|
|:"D" F2FA ED "A" F2E .|"D" ED "A" F2E E^CDE|"D" F2FA ED "A" F2E .|"D" ED "A" F2E "D" E^CD z "_fine":|
|:"G" ABBA AG "D" F2D .|FG "G" ABA "D" AGFD|"G" ABBA AG "D" F2D .|FG "G" ABA "D" AGF z:|
|:"G" BDcB BD A2G .|"D" FD G2F FGAD|"G" BDcB BD A2G .|"D" FD G2F FDE D z:|[K:Amin]
|:"E" EF^GA BE "Am" cBA .|"E" Bc "Am" B2A "E" ^GABc|dccB BA "Am" cBA .|"E" ^GA "Dm" G2F "E" EDE z:|
|:"E" dccB BA "Am" cBA .|"E" ^GA "Dm" G2F "E" GABc|dccB BA "Am" cBA .|"E" ^GA "Dm" G2F "E" EDE z "_D.C. al fine":|

